Origami/64x64/apps/audiobook.svg

<svg width="64" height="64" version="1.1" viewBox="0 0 64 64" xmlns="http://www.w3.org/2000/svg">
 <path d="m10 56v2c0 1.662 1.338 3 3 3h38c1.662 0 3-1.338 3-3v-2c0 1.662-1.338 3-3 3h-38c-1.662 0-3-1.338-3-3z" style="opacity:.2"/>
 <path d="m13 4c-1.662 0-3 1.338-3 3v50c0 1.662 1.338 3 3 3h38c1.662 0 3-1.338 3-3v-50c0-1.662-1.338-3-3-3h-38z" style="fill:#009587"/>
 <path d="m13 4c-1.662 0-3 1.338-3 3v50c0 1.662 1.338 3 3 3h5v-56z" style="opacity:.2"/>
 <path d="m38 5v28l4-4 4 4v-28h-8z" style="opacity:.2"/>
 <path d="m38 4v28l4-4 4 4v-28h-8z" style="fill:#d8d8d8"/>
 <path d="m13 4c-1.662 0-3 1.338-3 3v1c0-1.662 1.338-3 3-3h38c1.662 0 3 1.338 3 3v-1c0-1.662-1.338-3-3-3h-38z" style="fill:#ffffff;opacity:.2"/>
 <path d="M 63.958,45.848 A 16,16 0 0 1 48,61 16,16 0 0 1 32.042,46.152 16,16 0 0 0 32,47 16,16 0 0 0 48,63 16,16 0 0 0 64,47 16,16 0 0 0 63.958,45.848 Z" style="fill-rule:evenodd;opacity:.2"/>
 <circle cx="48" cy="46" r="16" style="fill-rule:evenodd;fill:#f34235"/>
 <path d="m48 36l-6.087891 6h-3.912109v8h3.912109l6.087891 6v-20zm2 0v2c3.374499 1.057203 6 4.328606 6 8s-2.625291 6.942797-6 8v2c4.581908-1.114222 8-5.142957 8-10 0-4.857249-3.418092-8.885778-8-10zm0 6v8c1.776528-0.773276 3-2.266708 3-4s-1.206688-3.226532-3-4z" style="fill:#ffffff"/>
</svg>

<svg xmlns="http://www.w3.org/2000/svg" width="64" height="64" version="1.1" viewBox="0 0 64 64">
 <path style="opacity:0.2" d="m 10,56 0,2 c 0,1.662 1.338,3 3,3 l 38,0 c 1.662,0 3,-1.338 3,-3 l 0,-2 c 0,1.662 -1.338,3 -3,3 l -38,0 c -1.662,0 -3,-1.338 -3,-3 z"/>
 <path style="fill:#009587" d="m 13,4 c -1.662,0 -3,1.338 -3,3 l 0,50 c 0,1.662 1.338,3 3,3 l 38,0 c 1.662,0 3,-1.338 3,-3 L 54,7 C 54,5.338 52.662,4 51,4 L 13,4 Z"/>
 <path style="opacity:0.2" d="m 13,4 c -1.662,0 -3,1.338 -3,3 l 0,50 c 0,1.662 1.338,3 3,3 l 5,0 0,-56 z"/>
 <path style="opacity:0.2" d="m 38,5 0,28 4,-4 4,4 0,-28 -8,0 z"/>
 <path style="fill:#d8d8d8" d="m 38,4 0,28 4,-4 4,4 0,-28 -8,0 z"/>
 <path style="opacity:0.2;fill:#ffffff" d="M 13 4 C 11.338 4 10 5.338 10 7 L 10 8 C 10 6.338 11.338 5 13 5 L 51 5 C 52.662 5 54 6.338 54 8 L 54 7 C 54 5.338 52.662 4 51 4 L 13 4 z"/>
 <path style="opacity:0.2;fill-rule:evenodd" d="M 63.958,45.848 A 16,16 0 0 1 48,61 16,16 0 0 1 32.042,46.152 16,16 0 0 0 32,47 16,16 0 0 0 48,63 16,16 0 0 0 64,47 16,16 0 0 0 63.958,45.848 Z"/>
 <circle style="fill:#f34235;fill-rule:evenodd" cx="48" cy="46" r="16"/>
 <path style="fill:#ffffff" d="M 48 36 L 41.912109 42 L 38 42 L 38 50 L 41.912109 50 L 48 56 L 48 36 z M 50 36 L 50 38 C 53.374499 39.057203 56 42.328606 56 46 C 56 49.671394 53.374709 52.942797 50 54 L 50 56 C 54.581908 54.885778 58 50.857043 58 46 C 58 41.142751 54.581908 37.114222 50 36 z M 50 42 L 50 50 C 51.776528 49.226724 53 47.733292 53 46 C 53 44.266708 51.793312 42.773468 50 42 z"/>
</svg>
